app/assets/images/heroicons/mini/numbered-list.svg

<svg width="20" height="20" viewBox="0 0 20 20" fill="none" xmlns="http://www.w3.org/2000/svg">
<path d="M3.0002 1.25C2.58599 1.25 2.2502 1.58579 2.2502 2C2.2502 2.41421 2.58599 2.75 3.0002 2.75H3.2502V5.25C3.2502 5.66421 3.58599 6 4.0002 6C4.41441 6 4.7502 5.66421 4.7502 5.25V2C4.7502 1.58579 4.41441 1.25 4.0002 1.25H3.0002Z" fill="black"/>
<path d="M2.97049 8.65372C3.29513 8.55397 3.64067 8.5 4.0002 8.5C4.16835 8.5 4.33333 8.5118 4.49444 8.53453C4.49127 8.53922 4.48691 8.54312 4.48165 8.54575L2.41479 9.57918C2.1607 9.70622 2.0002 9.96592 2.0002 10.25V11.25C2.0002 11.6642 2.33599 12 2.7502 12H5.2502C5.66441 12 6.0002 11.6642 6.0002 11.25C6.0002 10.8358 5.66441 10.5 5.2502 10.5H3.92725L5.15247 9.88739C5.67202 9.62762 6.0002 9.09661 6.0002 8.51574C6.0002 7.86944 5.57097 7.18897 4.80714 7.06489C4.54401 7.02215 4.27442 7 4.0002 7C3.48967 7 2.99569 7.07676 2.52991 7.21988C2.13397 7.34154 1.91162 7.76115 2.03328 8.15709C2.15494 8.55303 2.57455 8.77538 2.97049 8.65372Z" fill="black"/>
<path d="M7.75 3C7.33579 3 7 3.33579 7 3.75C7 4.16421 7.33579 4.5 7.75 4.5H17.25C17.6642 4.5 18 4.16421 18 3.75C18 3.33579 17.6642 3 17.25 3H7.75Z" fill="black"/>
<path d="M7.75 9.25C7.33579 9.25 7 9.58579 7 10C7 10.4142 7.33579 10.75 7.75 10.75H17.25C17.6642 10.75 18 10.4142 18 10C18 9.58579 17.6642 9.25 17.25 9.25H7.75Z" fill="black"/>
<path d="M7.75 15.5C7.33579 15.5 7 15.8358 7 16.25C7 16.6642 7.33579 17 7.75 17H17.25C17.6642 17 18 16.6642 18 16.25C18 15.8358 17.6642 15.5 17.25 15.5H7.75Z" fill="black"/>
<path d="M2.625 13.875C2.21079 13.875 1.875 14.2108 1.875 14.625C1.875 15.0392 2.21079 15.375 2.625 15.375H4.125C4.19404 15.375 4.25 15.431 4.25 15.5C4.25 15.569 4.19404 15.625 4.125 15.625H3.5C3.08579 15.625 2.75 15.9608 2.75 16.375C2.75 16.7892 3.08579 17.125 3.5 17.125H4.125C4.19404 17.125 4.25 17.181 4.25 17.25C4.25 17.319 4.19404 17.375 4.125 17.375H2.625C2.21079 17.375 1.875 17.7108 1.875 18.125C1.875 18.5392 2.21079 18.875 2.625 18.875H4.125C5.02246 18.875 5.75 18.1475 5.75 17.25C5.75 16.9278 5.65625 16.6276 5.49454 16.375C5.65625 16.1224 5.75 15.8222 5.75 15.5C5.75 14.6025 5.02246 13.875 4.125 13.875H2.625Z" fill="black"/>
</svg>

<svg xmlns="http://www.w3.org/2000/svg" viewBox="0 0 20 20" fill="currentColor" aria-hidden="true" data-slot="icon">
  <path d="M3 1.25a.75.75 0 0 0 0 1.5h.25v2.5a.75.75 0 0 0 1.5 0V2A.75.75 0 0 0 4 1.25H3ZM2.97 8.654a3.5 3.5 0 0 1 1.524-.12.034.034 0 0 1-.012.012L2.415 9.579A.75.75 0 0 0 2 10.25v1c0 .414.336.75.75.75h2.5a.75.75 0 0 0 0-1.5H3.927l1.225-.613c.52-.26.848-.79.848-1.371 0-.647-.429-1.327-1.193-1.451a5.03 5.03 0 0 0-2.277.155.75.75 0 0 0 .44 1.434ZM7.75 3a.75.75 0 0 0 0 1.5h9.5a.75.75 0 0 0 0-1.5h-9.5ZM7.75 9.25a.75.75 0 0 0 0 1.5h9.5a.75.75 0 0 0 0-1.5h-9.5ZM7.75 15.5a.75.75 0 0 0 0 1.5h9.5a.75.75 0 0 0 0-1.5h-9.5ZM2.625 13.875a.75.75 0 0 0 0 1.5h1.5a.125.125 0 0 1 0 .25H3.5a.75.75 0 0 0 0 1.5h.625a.125.125 0 0 1 0 .25h-1.5a.75.75 0 0 0 0 1.5h1.5a1.625 1.625 0 0 0 1.37-2.5 1.625 1.625 0 0 0-1.37-2.5h-1.5Z"/>
</svg>
